Sources/FrostedUI/Resources/Icons.xcassets/youtubeSize24.imageset/youtube-size-24.svg

<svg
  width="24"
  height="24"
  viewBox="0 0 24 24"
  fill="none"
  xmlns="http://www.w3.org/2000/svg"
  data-fui-icon="true"
>
  <path
    clip-rule="evenodd"
    d="M20.2043 4.00776C21.1084 4.28763 21.8189 5.10925 22.0609 6.15475C22.4982 8.04786 22.5 12 22.5 12C22.5 12 22.5 15.9522 22.0609 17.8453C21.8189 18.8908 21.1084 19.7124 20.2043 19.9922C18.5673 20.5 12 20.5 12 20.5C12 20.5 5.43274 20.5 3.79568 19.9922C2.89159 19.7124 2.1811 18.8908 1.93908 17.8453C1.5 15.9522 1.5 12 1.5 12C1.5 12 1.5 8.04786 1.93908 6.15475C2.1811 5.10925 2.89159 4.28763 3.79568 4.00776C5.43274 3.5 12 3.5 12 3.5C12 3.5 18.5673 3.5 20.2043 4.00776ZM15.1384 11.7838C15.305 11.88 15.305 12.1206 15.1384 12.2168L10.1728 15.0834C10.0062 15.1796 9.79785 15.0594 9.79785 14.8669V9.13365C9.79785 8.9412 10.0062 8.82092 10.1728 8.91714L15.1384 11.7838Z"
    stroke="currentColor"
    stroke-width="1.5"
  />
</svg>

<svg xmlns="http://www.w3.org/2000/svg" width="24" height="24" fill="none" data-fui-icon="true" viewBox="0 0 24 24"><path stroke="currentColor" stroke-width="1.5" d="M20.204 4.008c.904.28 1.615 1.101 1.857 2.147C22.498 8.048 22.5 12 22.5 12s0 3.952-.44 5.845c-.241 1.046-.952 1.867-1.856 2.147C18.567 20.5 12 20.5 12 20.5s-6.567 0-8.204-.508c-.904-.28-1.615-1.101-1.857-2.147C1.5 15.952 1.5 12 1.5 12s0-3.952.44-5.845c.241-1.046.952-1.867 1.856-2.147C5.433 3.5 12 3.5 12 3.5s6.567 0 8.204.508Zm-5.066 7.776a.25.25 0 0 1 0 .433l-4.965 2.866a.25.25 0 0 1-.375-.216V9.134a.25.25 0 0 1 .375-.217z" clip-rule="evenodd"/></svg>
